!!!OTL: EINS BAUREN SOHN HAT SICH VERMESSN
!!!ARE: Europa, Mitteleuropa, Deutschland
!!!SCT: E1542
!!!YEM: Copyright 1995, estate of Helmut Schaffrath.
**kern
*ICvox
*Ivox
*M4/4
*k[b-]
*F:
{4a
=1
4a
4a
4a
4a
=2
4a
4b-
2cc
=3
4r}
{4a
4a
4cc
=4
8b-
8g
8b-
8cc
8dd
8cc
8dd
8cc
=5
4dd
4dd
2dd
=6
2g
4r}
{4cc
=7
8cc
8b-
8a
8g
4f
4b-
=8
8a
8g
8f
8e
4d}
{4a
=9
8a
8g
8f
8e
4d
4a
=10
2.b-
4g
=11
8a
8g
8a
8b-
4cc}
{4a
=12
8b-
8a
8b-
8cc
4dd
4dd
=13
8cc
8b-
8a
8g
4f}
{4dd
=14
8cc
8b-
8a
8g
4f}
==
!!!AGN: Staende -, Bauern - Lied, Spott
!!!ONB: ESAC (Essen Associative Code) Database: ERK3
!!!AMT: simple quadruple
!!!AIN: vox
!!!EED: Helmut Schaffrath
!!!EEV: 1.0
*-
